;FLAVOR:Marlin
;TIME:555
;Filament used: 2.90646m
;Layer height: 1
;MINX:690.934
;MINY:308.296
;MINZ:1.06
;MAXX:735.584
;MAXY:498.946
;MAXZ:4.06
;Generated with Cura_SteamEngine 4.13.0
M140 S70
M105
M190 S70
M104 S225
M105
M109 S225
M82 ;absolute extrusion mode
M501
G28 ;Home
M420 S1
G1 Z20.0 F6000 ;Move the platform down 15mm
;Prime the extruder
G92 E0
G1 F200 E3
G92 E0
G92 E0
G92 E0
;LAYER_COUNT:4
;LAYER:0
M117 INDICATOR-Layer0
M107
G0 F3000 X691.921 Y316.187 Z1.06
;TYPE:SKIRT
G1 F1500 X692.347 Y315.268 E0.22722
G1 X692.845 Y314.386 E0.45442
G1 X693.41 Y313.546 E0.68151
G1 X694.04 Y312.753 E0.90869
G1 X694.731 Y312.012 E1.13597
G1 X695.478 Y311.328 E1.36317
G1 X696.276 Y310.705 E1.59026
G1 X697.121 Y310.147 E1.81741
G1 X698.008 Y309.658 E2.04461
G1 X698.93 Y309.24 E2.27169
G1 X699.883 Y308.896 E2.49896
G1 X700.86 Y308.628 E2.72621
G1 X701.854 Y308.438 E2.95322
G1 X702.861 Y308.327 E3.18048
G1 X703.759 Y308.296 E3.38203
G1 X722.759 Y308.296 E7.64403
G1 X723.771 Y308.336 E7.87122
G1 X724.777 Y308.456 E8.09848
G1 X725.77 Y308.654 E8.32561
G1 X726.744 Y308.931 E8.55276
G1 X727.693 Y309.283 E8.7798
G1 X728.612 Y309.709 E9.00702
G1 X729.494 Y310.207 E9.23423
G1 X730.334 Y310.772 E9.46131
G1 X731.127 Y311.402 E9.6885
G1 X731.868 Y312.093 E9.91577
G1 X732.552 Y312.84 E10.14297
G1 X733.175 Y313.638 E10.37007
G1 X733.733 Y314.483 E10.59721
G1 X734.222 Y315.37 E10.82441
G1 X734.64 Y316.292 E11.05149
G1 X734.984 Y317.245 E11.27877
G1 X735.252 Y318.222 E11.50602
G1 X735.442 Y319.216 E11.73303
G1 X735.553 Y320.223 E11.96028
G1 X735.584 Y321.121 E12.16184
G1 X735.584 Y486.121 E49.17396
G1 X735.544 Y487.133 E49.40114
G1 X735.424 Y488.139 E49.6284
G1 X735.226 Y489.132 E49.85553
G1 X734.949 Y490.106 E50.08268
G1 X734.597 Y491.055 E50.30973
G1 X734.171 Y491.974 E50.53695
G1 X733.673 Y492.856 E50.76415
G1 X733.108 Y493.696 E50.99123
G1 X732.478 Y494.489 E51.21842
G1 X731.787 Y495.23 E51.4457
G1 X731.04 Y495.914 E51.67289
G1 X730.242 Y496.537 E51.89999
G1 X729.397 Y497.095 E52.12714
G1 X728.51 Y497.584 E52.35434
G1 X727.588 Y498.002 E52.58142
G1 X726.635 Y498.346 E52.80869
G1 X725.658 Y498.614 E53.03594
G1 X724.664 Y498.804 E53.26295
G1 X723.657 Y498.915 E53.4902
G1 X722.759 Y498.946 E53.69176
G1 X703.759 Y498.946 E57.95376
G1 X702.747 Y498.906 E58.18095
G1 X701.741 Y498.786 E58.40821
G1 X700.748 Y498.588 E58.63534
G1 X699.774 Y498.311 E58.86249
G1 X698.825 Y497.959 E59.08953
G1 X697.906 Y497.533 E59.31675
G1 X697.024 Y497.035 E59.54396
G1 X696.184 Y496.47 E59.77104
G1 X695.391 Y495.84 E59.99823
G1 X694.65 Y495.149 E60.2255
G1 X693.966 Y494.402 E60.4527
G1 X693.343 Y493.604 E60.67979
G1 X692.785 Y492.759 E60.90694
G1 X692.296 Y491.872 E61.13414
G1 X691.878 Y490.95 E61.36122
G1 X691.534 Y489.997 E61.5885
G1 X691.266 Y489.02 E61.81575
G1 X691.076 Y488.026 E62.04275
G1 X690.965 Y487.019 E62.27001
G1 X690.934 Y486.121 E62.47156
G1 X690.934 Y321.121 E99.48369
G1 X690.974 Y320.109 E99.71087
G1 X691.094 Y319.103 E99.93813
G1 X691.292 Y318.11 E100.16526
G1 X691.569 Y317.136 E100.39241
G1 X691.921 Y316.187 E100.61946
G0 F3000 X693.27 Y316.468
G1 F1500 X693.694 Y315.609 E100.83434
G1 X694.189 Y314.789 E101.0492
G1 X694.751 Y314.013 E101.26412
G1 X695.375 Y313.286 E101.47903
G1 X696.057 Y312.614 E101.6938
G1 X696.794 Y312.002 E101.90869
G1 X697.579 Y311.453 E102.12357
G1 X698.407 Y310.971 E102.33848
G1 X699.272 Y310.56 E102.5533
G1 X700.168 Y310.222 E102.76811
G1 X701.09 Y309.961 E102.98306
G1 X702.03 Y309.777 E103.19792
G1 X702.982 Y309.672 E103.41276
G1 X703.759 Y309.646 E103.58715
G1 X722.759 Y309.646 E107.84916
G1 X723.716 Y309.686 E108.06401
G1 X724.666 Y309.806 E108.27881
G1 X725.604 Y310.004 E108.49385
G1 X726.521 Y310.28 E108.70867
G1 X727.412 Y310.632 E108.92356
G1 X728.271 Y311.056 E109.13844
G1 X729.091 Y311.551 E109.3533
G1 X729.867 Y312.113 E109.56822
G1 X730.594 Y312.737 E109.78313
G1 X731.266 Y313.419 E109.99791
G1 X731.878 Y314.156 E110.21279
G1 X732.427 Y314.941 E110.42767
G1 X732.909 Y315.769 E110.64258
G1 X733.32 Y316.634 E110.85741
G1 X733.658 Y317.53 E111.07222
G1 X733.919 Y318.452 E111.28717
G1 X734.103 Y319.392 E111.50202
G1 X734.208 Y320.344 E111.71687
G1 X734.234 Y321.121 E111.89126
G1 X734.234 Y486.121 E148.90338
G1 X734.194 Y487.078 E149.11824
G1 X734.074 Y488.028 E149.33303
G1 X733.876 Y488.966 E149.54808
G1 X733.6 Y489.883 E149.76289
G1 X733.248 Y490.774 E149.97779
G1 X732.824 Y491.633 E150.19267
G1 X732.329 Y492.453 E150.40752
G1 X731.767 Y493.229 E150.62245
G1 X731.143 Y493.956 E150.83736
G1 X730.461 Y494.628 E151.05213
G1 X729.724 Y495.24 E151.26702
G1 X728.939 Y495.789 E151.4819
G1 X728.111 Y496.271 E151.69681
G1 X727.246 Y496.682 E151.91163
G1 X726.35 Y497.02 E152.12644
G1 X725.428 Y497.281 E152.34139
G1 X724.488 Y497.465 E152.55625
G1 X723.536 Y497.57 E152.77109
G1 X722.759 Y497.596 E152.94548
G1 X703.759 Y497.596 E157.20748
G1 X702.802 Y497.556 E157.42234
G1 X701.852 Y497.436 E157.63713
G1 X700.914 Y497.238 E157.85218
G1 X699.997 Y496.962 E158.06699
G1 X699.106 Y496.61 E158.28189
G1 X698.247 Y496.186 E158.49677
G1 X697.427 Y495.691 E158.71163
G1 X696.651 Y495.129 E158.92655
G1 X695.924 Y494.505 E159.14146
G1 X695.252 Y493.823 E159.35623
G1 X694.64 Y493.086 E159.57112
G1 X694.091 Y492.301 E159.786
G1 X693.609 Y491.473 E160.00091
G1 X693.198 Y490.608 E160.21573
G1 X692.86 Y489.712 E160.43055
G1 X692.599 Y488.79 E160.64549
G1 X692.415 Y487.85 E160.86035
G1 X692.31 Y486.898 E161.07519
G1 X692.284 Y486.121 E161.24959
G1 X692.284 Y321.121 E198.26171
G1 X692.324 Y320.164 E198.47656
G1 X692.444 Y319.214 E198.69136
G1 X692.642 Y318.276 E198.9064
G1 X692.918 Y317.359 E199.12122
G1 X693.27 Y316.468 E199.33611
G0 F3000 X694.267 Y317.596
G1 F1500 X694.618 Y316.767 E199.53805
G1 X695.04 Y315.973 E199.73975
G1 X695.532 Y315.219 E199.94171
G1 X696.088 Y314.512 E200.14347
G1 X696.705 Y313.857 E200.34532
G1 X697.378 Y313.26 E200.54712
G1 X698.101 Y312.724 E200.749
G1 X698.869 Y312.255 E200.95086
G1 X699.675 Y311.856 E201.1526
G1 X700.514 Y311.53 E201.35451
G1 X701.378 Y311.28 E201.55627
G1 X702.261 Y311.107 E201.75811
G1 X703.156 Y311.014 E201.95995
G1 X703.759 Y310.996 E202.09527
G1 X722.759 Y310.996 E206.35727
G1 X723.658 Y311.036 E206.55913
G1 X724.55 Y311.156 E206.76103
G1 X725.427 Y311.354 E206.9627
G1 X726.284 Y311.629 E207.1646
G1 X727.113 Y311.98 E207.36654
G1 X727.907 Y312.402 E207.56823
G1 X728.661 Y312.894 E207.77019
G1 X729.368 Y313.45 E207.97195
G1 X730.023 Y314.067 E208.1738
G1 X730.62 Y314.74 E208.3756
G1 X731.156 Y315.463 E208.57749
G1 X731.625 Y316.231 E208.77934
G1 X732.024 Y317.037 E208.98108
G1 X732.35 Y317.876 E209.18299
G1 X732.6 Y318.74 E209.38475
G1 X732.773 Y319.623 E209.58659
G1 X732.866 Y320.518 E209.78843
G1 X732.884 Y321.121 E209.92375
G1 X732.884 Y486.121 E246.93588
G1 X732.844 Y487.02 E247.13774
G1 X732.724 Y487.912 E247.33963
G1 X732.526 Y488.789 E247.5413
G1 X732.251 Y489.646 E247.7432
G1 X731.9 Y490.475 E247.94514
G1 X731.478 Y491.269 E248.14684
G1 X730.986 Y492.023 E248.34879
G1 X730.43 Y492.73 E248.55055
G1 X729.813 Y493.385 E248.7524
G1 X729.14 Y493.982 E248.9542
G1 X728.417 Y494.518 E249.15609
G1 X727.649 Y494.987 E249.35795
G1 X726.843 Y495.386 E249.55969
G1 X726.004 Y495.712 E249.7616
G1 X725.14 Y495.962 E249.96335
G1 X724.257 Y496.135 E250.16519
G1 X723.362 Y496.228 E250.36703
G1 X722.759 Y496.246 E250.50236
G1 X703.759 Y496.246 E254.76436
G1 X702.86 Y496.206 E254.96622
G1 X701.968 Y496.086 E255.16811
G1 X701.091 Y495.888 E255.36979
G1 X700.234 Y495.613 E255.57168
G1 X699.405 Y495.262 E255.77362
G1 X698.611 Y494.84 E255.97532
G1 X697.857 Y494.348 E256.17728
G1 X697.15 Y493.792 E256.37903
G1 X696.495 Y493.175 E256.58088
G1 X695.898 Y492.502 E256.78268
G1 X695.362 Y491.779 E256.98457
G1 X694.893 Y491.011 E257.18643
G1 X694.494 Y490.205 E257.38817
G1 X694.168 Y489.366 E257.59008
G1 X693.918 Y488.502 E257.79184
G1 X693.745 Y487.619 E257.99367
G1 X693.652 Y486.724 E258.19552
G1 X693.634 Y486.121 E258.33084
G1 X693.634 Y321.121 E295.34296
G1 X693.674 Y320.222 E295.54482
G1 X693.794 Y319.33 E295.74671
G1 X693.992 Y318.453 E295.94839
G1 X694.267 Y317.596 E296.15028
G0 F3000 X695.616 Y317.85
G1 F1500 X695.965 Y317.089 E296.33808
G1 X696.385 Y316.364 E296.52603
G1 X696.872 Y315.683 E296.71383
G1 X697.422 Y315.051 E296.90176
G1 X698.03 Y314.474 E297.08979
G1 X698.69 Y313.958 E297.27771
G1 X699.396 Y313.508 E297.46551
G1 X700.142 Y313.126 E297.65352
G1 X700.92 Y312.818 E297.84121
G1 X701.725 Y312.585 E298.0292
G1 X702.548 Y312.43 E298.21706
G1 X703.759 Y312.346 E298.48936
G1 X722.759 Y312.346 E302.75136
G1 X723.596 Y312.386 E302.93932
G1 X724.425 Y312.506 E303.12722
G1 X725.239 Y312.704 E303.31514
G1 X726.03 Y312.978 E303.50292
G1 X726.791 Y313.327 E303.69072
G1 X727.516 Y313.747 E303.87866
G1 X728.197 Y314.234 E304.06646
G1 X728.829 Y314.784 E304.2544
G1 X729.406 Y315.392 E304.44242
G1 X729.922 Y316.052 E304.63035
G1 X730.372 Y316.758 E304.81815
G1 X730.754 Y317.504 E305.00615
G1 X731.062 Y318.282 E305.19385
G1 X731.295 Y319.087 E305.38183
G1 X731.45 Y319.91 E305.56969
G1 X731.534 Y321.121 E305.84199
G1 X731.534 Y486.121 E342.85411
G1 X731.494 Y486.958 E343.04208
G1 X731.374 Y487.787 E343.22997
G1 X731.176 Y488.601 E343.41789
G1 X730.902 Y489.392 E343.60567
G1 X730.553 Y490.153 E343.79347
G1 X730.133 Y490.878 E343.98141
G1 X729.646 Y491.559 E344.16922
G1 X729.096 Y492.191 E344.35715
G1 X728.488 Y492.768 E344.54517
G1 X727.828 Y493.284 E344.7331
G1 X727.122 Y493.734 E344.9209
G1 X726.376 Y494.116 E345.1089
G1 X725.598 Y494.424 E345.2966
G1 X724.793 Y494.657 E345.48458
G1 X723.97 Y494.812 E345.67244
G1 X722.759 Y494.896 E345.94474
G1 X703.759 Y494.896 E350.20674
G1 X702.922 Y494.856 E350.39471
G1 X702.093 Y494.736 E350.58261
G1 X701.279 Y494.538 E350.77052
G1 X700.488 Y494.264 E350.9583
G1 X699.727 Y493.915 E351.1461
G1 X699.002 Y493.495 E351.33405
G1 X698.321 Y493.008 E351.52185
G1 X697.689 Y492.458 E351.70978
G1 X697.112 Y491.85 E351.89781
G1 X696.596 Y491.19 E352.08573
G1 X696.146 Y490.484 E352.27353
G1 X695.764 Y489.738 E352.46153
G1 X695.456 Y488.96 E352.64923
G1 X695.223 Y488.155 E352.83722
G1 X695.068 Y487.332 E353.02507
G1 X694.984 Y486.121 E353.29737
G1 X694.984 Y321.121 E390.3095
G1 X695.024 Y320.284 E390.49746
G1 X695.144 Y319.455 E390.68536
G1 X695.342 Y318.641 E390.87328
G1 X695.616 Y317.85 E391.06105
G0 F3000 X696.965 Y318.126
G1 F1500 X697.312 Y317.438 E391.2339
G1 X697.728 Y316.789 E391.40682
G1 X698.21 Y316.188 E391.57964
G1 X698.751 Y315.639 E391.75253
G1 X699.346 Y315.15 E391.92529
G1 X699.988 Y314.725 E392.098
G1 X700.671 Y314.368 E392.27087
G1 X701.388 Y314.085 E392.44378
G1 X702.13 Y313.877 E392.61664
G1 X702.889 Y313.747 E392.78937
G1 X703.759 Y313.696 E392.98486
G1 X722.759 Y313.696 E397.24687
G1 X723.528 Y313.736 E397.4196
G1 X724.29 Y313.855 E397.5926
G1 X725.034 Y314.053 E397.7653
G1 X725.754 Y314.327 E397.9381
G1 X726.442 Y314.674 E398.11095
G1 X727.091 Y315.09 E398.28387
G1 X727.692 Y315.572 E398.45669
G1 X728.241 Y316.113 E398.62958
G1 X728.73 Y316.708 E398.80234
G1 X729.155 Y317.35 E398.97505
G1 X729.512 Y318.033 E399.14792
G1 X729.795 Y318.75 E399.32083
G1 X730.003 Y319.492 E399.49369
G1 X730.133 Y320.251 E399.66643
G1 X730.184 Y321.121 E399.86192
G1 X730.184 Y486.121 E436.87404
G1 X730.144 Y486.89 E437.04677
G1 X730.025 Y487.652 E437.21977
G1 X729.827 Y488.396 E437.39247
G1 X729.553 Y489.116 E437.56528
G1 X729.206 Y489.804 E437.73812
G1 X728.79 Y490.453 E437.91104
G1 X728.308 Y491.054 E438.08386
G1 X727.767 Y491.603 E438.25675
G1 X727.172 Y492.092 E438.42951
G1 X726.53 Y492.517 E438.60222
G1 X725.847 Y492.874 E438.77509
G1 X725.13 Y493.157 E438.948
G1 X724.388 Y493.365 E439.12086
G1 X723.629 Y493.495 E439.2936
G1 X722.759 Y493.546 E439.48909
G1 X703.759 Y493.546 E443.75109
G1 X702.99 Y493.506 E443.92382
G1 X702.228 Y493.387 E444.09682
G1 X701.484 Y493.189 E444.26952
G1 X700.764 Y492.915 E444.44233
G1 X700.076 Y492.568 E444.61518
G1 X699.427 Y492.152 E444.7881
G1 X698.826 Y491.67 E444.96091
G1 X698.277 Y491.129 E445.13381
G1 X697.788 Y490.534 E445.30657
G1 X697.363 Y489.892 E445.47927
G1 X697.006 Y489.209 E445.65215
G1 X696.723 Y488.492 E445.82506
G1 X696.515 Y487.75 E445.99791
G1 X696.385 Y486.991 E446.17065
G1 X696.334 Y486.121 E446.36614
G1 X696.334 Y321.121 E483.37826
G1 X696.374 Y320.352 E483.55099
G1 X696.493 Y319.59 E483.72399
G1 X696.691 Y318.846 E483.89669
G1 X696.965 Y318.126 E484.0695
G0 F3000 X698.041 Y319.07
G1 F1500 X698.313 Y318.429 E484.2257
G1 X698.657 Y317.823 E484.38201
G1 X699.068 Y317.26 E484.53837
G1 X699.541 Y316.749 E484.69456
G1 X700.07 Y316.294 E484.85108
G1 X700.647 Y315.904 E485.0073
G1 X701.265 Y315.582 E485.16362
G1 X701.916 Y315.332 E485.32005
G1 X702.591 Y315.159 E485.47635
G1 X703.281 Y315.065 E485.63256
G1 X703.759 Y315.046 E485.73987
G1 X722.759 Y315.046 E490.00187
G1 X723.455 Y315.086 E490.15825
G1 X724.141 Y315.205 E490.31443
G1 X724.81 Y315.403 E490.47093
G1 X725.451 Y315.675 E490.62713
G1 X726.057 Y316.019 E490.78344
G1 X726.62 Y316.43 E490.9398
G1 X727.131 Y316.903 E491.09599
G1 X727.586 Y317.432 E491.25251
G1 X727.976 Y318.009 E491.40873
G1 X728.298 Y318.627 E491.56505
G1 X728.548 Y319.278 E491.72148
G1 X728.721 Y319.953 E491.87778
G1 X728.815 Y320.643 E492.03399
G1 X728.834 Y321.121 E492.1413
G1 X728.834 Y486.121 E529.15342
G1 X728.794 Y486.817 E529.3098
G1 X728.675 Y487.503 E529.46598
G1 X728.477 Y488.172 E529.62248
G1 X728.205 Y488.813 E529.77868
G1 X727.861 Y489.419 E529.93499
G1 X727.45 Y489.982 E530.09135
G1 X726.977 Y490.493 E530.24754
G1 X726.448 Y490.948 E530.40406
G1 X725.871 Y491.338 E530.56029
G1 X725.253 Y491.66 E530.7166
G1 X724.602 Y491.91 E530.87303
G1 X723.927 Y492.083 E531.02934
G1 X723.237 Y492.177 E531.18554
G1 X722.759 Y492.196 E531.29285
G1 X703.759 Y492.196 E535.55485
G1 X703.063 Y492.156 E535.71123
G1 X702.377 Y492.037 E535.86741
G1 X701.708 Y491.839 E536.02391
G1 X701.067 Y491.567 E536.18011
G1 X700.461 Y491.223 E536.33642
G1 X699.898 Y490.812 E536.49278
G1 X699.387 Y490.339 E536.64898
G1 X698.932 Y489.81 E536.80549
G1 X698.542 Y489.233 E536.96172
G1 X698.22 Y488.615 E537.11803
G1 X697.97 Y487.964 E537.27446
G1 X697.797 Y487.289 E537.43077
G1 X697.703 Y486.599 E537.58697
G1 X697.684 Y486.121 E537.69428
G1 X697.684 Y321.121 E574.7064
G1 X697.724 Y320.425 E574.86279
G1 X697.843 Y319.739 E575.01896
G1 X698.041 Y319.07 E575.17547
G0 F3000 X699.39 Y319.323
G1 F1500 X699.66 Y318.771 E575.31331
G1 X700 Y318.259 E575.45117
G1 X700.403 Y317.795 E575.58903
G1 X700.863 Y317.388 E575.72681
G1 X701.372 Y317.043 E575.86474
G1 X701.921 Y316.768 E576.00248
G1 X702.502 Y316.566 E576.14046
G1 X703.103 Y316.442 E576.27811
G1 X703.759 Y316.396 E576.42562
G1 X722.759 Y316.396 E580.68762
G1 X723.372 Y316.436 E580.82542
G1 X723.975 Y316.555 E580.96329
G1 X724.557 Y316.752 E581.10112
G1 X725.109 Y317.022 E581.23896
G1 X725.621 Y317.362 E581.37683
G1 X726.085 Y317.765 E581.51469
G1 X726.492 Y318.225 E581.65247
G1 X726.837 Y318.734 E581.7904
G1 X727.112 Y319.283 E581.92813
G1 X727.314 Y319.864 E582.06611
G1 X727.438 Y320.465 E582.20377
G1 X727.484 Y321.121 E582.35128
G1 X727.484 Y486.121 E619.3634
G1 X727.444 Y486.734 E619.5012
G1 X727.325 Y487.337 E619.63907
G1 X727.128 Y487.919 E619.7769
G1 X726.858 Y488.471 E619.91474
G1 X726.518 Y488.983 E620.0526
G1 X726.115 Y489.447 E620.19046
G1 X725.655 Y489.854 E620.32824
G1 X725.146 Y490.199 E620.46617
G1 X724.597 Y490.474 E620.60391
G1 X724.016 Y490.676 E620.74189
G1 X723.415 Y490.8 E620.87954
G1 X722.759 Y490.846 E621.02705
G1 X703.759 Y490.846 E625.28906
G1 X703.146 Y490.806 E625.42685
G1 X702.543 Y490.687 E625.56473
G1 X701.961 Y490.49 E625.70255
G1 X701.409 Y490.22 E625.84039
G1 X700.897 Y489.88 E625.97826
G1 X700.433 Y489.477 E626.11612
G1 X700.026 Y489.017 E626.2539
G1 X699.681 Y488.508 E626.39183
G1 X699.406 Y487.959 E626.52956
G1 X699.204 Y487.378 E626.66754
G1 X699.08 Y486.777 E626.8052
G1 X699.034 Y486.121 E626.95271
G1 X699.034 Y321.121 E663.96483
G1 X699.074 Y320.508 E664.10263
G1 X699.193 Y319.905 E664.2405
G1 X699.39 Y319.323 E664.37833
G0 F3000 X700.738 Y319.617
G1 F1500 X701.004 Y319.171 E664.49482
G1 X701.336 Y318.772 E664.61125
