;FLAVOR:Marlin
;TIME:1304
;Filament used: 5.2554m
;Layer height: 0.6
;MINX:667.153
;MINY:377.397
;MINZ:0.3
;MAXX:710.148
;MAXY:462.061
;MAXZ:68.7
;Generated with Cura_SteamEngine 4.13.0
M140 S60
M105
M190 S60
M104 S195
M105
M109 S195
M82 ;absolute extrusion mode
M501
G28 ;Home
M420 S1
G1 Z20.0 F6000 ;Move the platform down 15mm
;Prime the extruder
G92 E0
G1 F200 E3
G92 E0
G92 E0
G92 E0
;LAYER_COUNT:115
;LAYER:0
M117 INDICATOR-Layer0
M107
G0 F3000 X674.77 Y381.53 Z0.3
;TYPE:SKIRT
G1 F2100 X675.14 Y380.884 E0.05251
G1 X675.255 Y380.709 E0.06728
G1 X675.802 Y380.012 E0.12978
G1 X676.375 Y379.439 E0.18695
G1 X676.83 Y379.051 E0.22913
G1 X677.258 Y378.739 E0.26649
G1 X677.702 Y378.47 E0.30311
G1 X678.165 Y378.23 E0.33989
G1 X678.775 Y377.964 E0.38684
G1 X679.486 Y377.722 E0.43981
G1 X680.107 Y377.573 E0.48486
G1 X680.847 Y377.456 E0.53771
G1 X681.453 Y377.414 E0.58056
G1 X682.518 Y377.397 E0.65569
G1 X695.046 Y377.399 E1.53941
G1 X695.749 Y377.409 E1.58901
G1 X696.33 Y377.449 E1.63009
G1 X696.822 Y377.517 E1.66512
G1 X697.331 Y377.605 E1.70156
G1 X698.232 Y377.845 E1.76733
G1 X698.526 Y377.952 E1.7894
G1 X699.173 Y378.238 E1.8393
G1 X699.809 Y378.592 E1.89065
G1 X700.319 Y378.937 E1.93408
G1 X700.823 Y379.33 E1.97916
G1 X701.451 Y379.954 E2.04161
G1 X701.887 Y380.481 E2.08986
G1 X701.982 Y380.607 E2.10099
G1 X702.488 Y381.425 E2.16884
G1 X702.885 Y382.269 E2.23463
G1 X703.119 Y382.936 E2.28449
G1 X703.192 Y383.193 E2.30334
G1 X703.33 Y383.825 E2.34897
G1 X703.375 Y384.202 E2.37575
G1 X703.457 Y385.226 E2.44822
G1 X703.775 Y390.187 E2.79888
G1 X703.81 Y390.685 E2.8341
G1 X703.85 Y391.31 E2.87828
G1 X704.216 Y397.371 E3.30659
G1 X704.291 Y398.511 E3.38718
G1 X705.161 Y412.992 E4.41051
G1 X705.203 Y413.761 E4.46483
G1 X705.228 Y414.145 E4.49198
G1 X705.486 Y419.231 E4.8512
G1 X705.515 Y420.006 E4.90591
G1 X705.518 Y420.637 E4.95042
G1 X705.498 Y421.19 E4.98946
G1 X705.456 Y421.876 E5.03794
G1 X705.393 Y422.569 E5.08702
G1 X705.325 Y423.161 E5.12906
G1 X705.172 Y424.212 E5.20398
G1 X705.046 Y424.905 E5.25366
G1 X704.942 Y425.413 E5.29024
G1 X704.844 Y425.855 E5.32217
G1 X704.635 Y426.704 E5.38385
G1 X704.467 Y427.313 E5.42841
G1 X704.321 Y427.799 E5.46421
G1 X704.13 Y428.374 E5.50695
G1 X703.801 Y429.288 E5.57547
G1 X703.565 Y429.888 E5.62095
G1 X703.324 Y430.453 E5.66428
G1 X703.049 Y431.067 E5.71174
G1 X702.789 Y431.608 E5.75408
G1 X702.411 Y432.317 E5.81075
G1 X702.119 Y432.857 E5.85406
G1 X701.849 Y433.32 E5.89186
G1 X701.304 Y434.209 E5.96542
G1 X700.835 Y434.947 E6.0271
G1 X700.512 Y435.41 E6.06692
G1 X700.077 Y435.993 E6.11823
G1 X699.984 Y436.114 E6.129
G1 X699.451 Y436.785 E6.18945
G1 X699.343 Y436.917 E6.20148
G1 X699.018 Y437.3 E6.23691
G1 X698.915 Y437.418 E6.24796
G1 X698.481 Y437.897 E6.29355
G1 X697.983 Y438.421 E6.34455
G1 X697.572 Y438.833 E6.3856
G1 X697.018 Y439.36 E6.43953
G1 X696.298 Y439.981 E6.5066
G1 X695.608 Y440.559 E6.5701
G1 X695.075 Y440.993 E6.61858
G1 X694.558 Y441.369 E6.66367
G1 X694.083 Y441.665 E6.70315
G1 X693.715 Y441.865 E6.7327
G1 X692.606 Y442.413 E6.81996
G1 X692.413 Y442.519 E6.83549
G1 X691.739 Y442.843 E6.88824
G1 X691.41 Y443.008 E6.9142
G1 X690.772 Y443.318 E6.96424
G1 X690.173 Y443.565 E7.00994
G1 X689.549 Y443.736 E7.05558
G1 X688.908 Y443.828 E7.10126
G1 X688.26 Y443.841 E7.14698
G1 X687.391 Y443.732 E7.20876
G1 X687.339 Y443.721 E7.21251
G1 X686.715 Y443.548 E7.25819
G1 X686.25 Y443.363 E7.29349
G1 X685.464 Y443.005 E7.35441
G1 X685.322 Y442.937 E7.36552
G1 X684.554 Y442.559 E7.4259
G1 X683.97 Y442.224 E7.47339
G1 X683.53 Y441.919 E7.51116
G1 X683.247 Y441.722 E7.53548
G1 X682.589 Y441.25 E7.5926
G1 X682.009 Y440.823 E7.6434
G1 X681.553 Y440.454 E7.68478
G1 X681.219 Y440.163 E7.71603
G1 X680.762 Y439.77 E7.75855
G1 X680.257 Y439.322 E7.80617
G1 X679.91 Y438.985 E7.84029
G1 X678.503 Y437.483 E7.98546
G1 X678.021 Y436.962 E8.03553
G1 X677.636 Y436.494 E8.07828
G1 X677.096 Y435.755 E8.14284
G1 X676.252 Y434.56 E8.24604
G1 X675.806 Y433.912 E8.30153
G1 X675.507 Y433.437 E8.34112
G1 X675.299 Y433.081 E8.37021
G1 X674.959 Y432.469 E8.41959
G1 X674.822 Y432.205 E8.44057
G1 X674.495 Y431.529 E8.49354
G1 X674.251 Y431.004 E8.53438
G1 X673.785 Y429.956 E8.61529
G1 X673.562 Y429.359 E8.66024
G1 X673.289 Y428.465 E8.72618
G1 X672.683 Y426.364 E8.88042
G1 X672.453 Y425.488 E8.94431
G1 X672.37 Y425.091 E8.97292
G1 X672.132 Y423.683 E9.07365
G1 X672.029 Y423.039 E9.11965
G1 X671.927 Y422.385 E9.16634
G1 X671.875 Y421.91 E9.20005
G1 X671.816 Y420.97 E9.26649
G1 X671.796 Y420.351 E9.31017
G1 X671.795 Y420.092 E9.32844
G1 X671.821 Y418.951 E9.40895
G1 X671.862 Y417.847 E9.48688
G1 X671.916 Y416.734 E9.56548
G1 X672.032 Y414.802 E9.70201
G1 X672.112 Y413.589 E9.78776
G1 X672.378 Y409.156 E10.10103
G1 X672.815 Y401.867 E10.61611
G1 X672.878 Y400.951 E10.68088
G1 X673.097 Y397.306 E10.93846
G1 X673.185 Y395.975 E11.03255
G1 X673.597 Y389.083 E11.51958
G1 X673.646 Y388.384 E11.56901
G1 X673.708 Y387.41 E11.63785
G1 X673.784 Y386.132 E11.72816
G1 X673.903 Y384.595 E11.8369
G1 X673.964 Y384.003 E11.87888
G1 X674.072 Y383.364 E11.9246
G1 X674.286 Y382.669 E11.9759
G1 X674.514 Y382.083 E12.02025
G1 X674.55 Y381.996 E12.02689
G1 X674.77 Y381.53 E12.06324
G0 F3000 X676.219 Y382.001
G1 F2100 X676.508 Y381.533 E12.10204
G1 X676.899 Y381.035 E12.1467
G1 X677.412 Y380.523 E12.19783
G1 X677.903 Y380.12 E12.24264
G1 X678.414 Y379.79 E12.28555
G1 X678.92 Y379.532 E12.32561
G1 X679.682 Y379.231 E12.3834
G1 X680.368 Y379.05 E12.43345
G1 X681 Y378.949 E12.4786
G1 X681.478 Y378.914 E12.51241
G1 X682.518 Y378.897 E12.58578
G1 X695.024 Y378.898 E13.46794
G1 X695.727 Y378.908 E13.51754
G1 X696.397 Y378.969 E13.565
G1 X696.567 Y378.995 E13.57713
G1 X697.076 Y379.083 E13.61356
G1 X697.719 Y379.254 E13.6605
G1 X698.013 Y379.361 E13.68257
G1 X698.475 Y379.565 E13.71819
G1 X699.002 Y379.857 E13.76069
G1 X699.467 Y380.171 E13.80027
G1 X699.859 Y380.479 E13.83544
G1 X700.307 Y380.924 E13.87998
G1 X700.689 Y381.384 E13.92216
G1 X700.784 Y381.51 E13.93329
G1 X701.146 Y382.094 E13.98175
G1 X701.487 Y382.813 E14.03789
G1 X701.676 Y383.345 E14.07771
G1 X701.749 Y383.602 E14.09656
G1 X701.88 Y384.323 E14.14825
G1 X701.96 Y385.322 E14.21894
G1 X702.279 Y390.294 E14.57039
G1 X702.313 Y390.782 E14.6049
G1 X702.353 Y391.4 E14.64858
G1 X702.719 Y397.47 E15.07753
G1 X702.793 Y398.601 E15.15748
G1 X703.663 Y413.074 E16.18025
G1 X703.706 Y413.864 E16.23606
G1 X703.73 Y414.222 E16.26136
G1 X703.987 Y419.287 E16.61911
G1 X704.019 Y420.173 E16.68165
G1 X704.004 Y421.028 E16.74197
G1 X703.976 Y421.531 E16.7775
G1 X703.953 Y421.848 E16.79992
G1 X703.893 Y422.493 E16.84562
G1 X703.829 Y423.027 E16.88356
G1 X703.688 Y423.996 E16.95263
G1 X703.572 Y424.628 E16.99795
G1 X703.408 Y425.407 E17.05411
G1 X703.199 Y426.265 E17.1164
G1 X703.024 Y426.903 E17.16307
G1 X702.753 Y427.765 E17.22681
G1 X702.389 Y428.78 E17.30287
G1 X702.185 Y429.299 E17.34221
G1 X701.951 Y429.849 E17.38437
G1 X701.682 Y430.45 E17.43082
G1 X701.458 Y430.916 E17.46729
G1 X701.094 Y431.599 E17.52188
G1 X700.821 Y432.105 E17.56244
G1 X700.57 Y432.537 E17.59768
G1 X700.037 Y433.407 E17.66965
G1 X699.591 Y434.109 E17.72832
G1 X699.288 Y434.542 E17.7656
G1 X698.876 Y435.095 E17.81424
G1 X698.276 Y435.852 E17.88238
G1 X698.199 Y435.946 E17.89095
G1 X697.801 Y436.414 E17.93429
G1 X697.454 Y436.799 E17.97085
G1 X696.919 Y437.363 E18.02568
G1 X696.525 Y437.759 E18.06509
G1 X696.037 Y438.225 E18.11269
G1 X695.335 Y438.831 E18.1781
G1 X694.661 Y439.396 E18.24014
G1 X694.128 Y439.83 E18.28863
G1 X693.71 Y440.131 E18.32496
G1 X693.05 Y440.521 E18.37904
G1 X691.909 Y441.085 E18.46882
G1 X691.763 Y441.167 E18.48063
G1 X691.089 Y441.491 E18.53338
G1 X690.755 Y441.659 E18.55976
G1 X690.117 Y441.969 E18.60979
G1 X689.608 Y442.172 E18.64845
G1 X689.076 Y442.298 E18.68701
G1 X688.531 Y442.346 E18.72561
G1 X687.984 Y442.313 E18.76426
G1 X687.65 Y442.254 E18.78819
G1 X686.872 Y441.998 E18.84596
G1 X685.984 Y441.592 E18.91484
G1 X685.216 Y441.214 E18.97522
G1 X684.704 Y440.911 E19.01718
G1 X684.121 Y440.503 E19.06738
G1 X683.479 Y440.042 E19.12313
G1 X682.899 Y439.615 E19.17394
G1 X682.226 Y439.051 E19.23587
G1 X681.757 Y438.648 E19.27949
G1 X681.252 Y438.2 E19.32711
G1 X681.005 Y437.959 E19.35146
G1 X679.604 Y436.465 E19.49593
G1 X679.122 Y435.944 E19.546
G1 X678.847 Y435.609 E19.57657
G1 X678.321 Y434.889 E19.63947
G1 X677.488 Y433.709 E19.74136
G1 X677.042 Y433.061 E19.79685
G1 X676.748 Y432.589 E19.83607
G1 X676.61 Y432.352 E19.85542
G1 X676.27 Y431.74 E19.9048
G1 X676.172 Y431.552 E19.91976
G1 X675.854 Y430.894 E19.97131
G1 X675.621 Y430.395 E20.01015
G1 X675.155 Y429.347 E20.09106
G1 X674.996 Y428.92 E20.1232
G1 X674.73 Y428.049 E20.18744
G1 X674.128 Y425.963 E20.34059
G1 X673.908 Y425.123 E20.40184
G1 X673.849 Y424.84 E20.42224
G1 X673.614 Y423.454 E20.5214
G1 X673.507 Y422.784 E20.56926
G1 X673.409 Y422.155 E20.61416
G1 X673.372 Y421.816 E20.63822
G1 X673.313 Y420.876 E20.70466
G1 X673.295 Y420.309 E20.74467
G1 X673.295 Y420.125 E20.75765
G1 X673.32 Y419.007 E20.83653
G1 X673.36 Y417.92 E20.91326
G1 X673.414 Y416.824 E20.99067
G1 X673.529 Y414.9 E21.12663
G1 X673.609 Y413.687 E21.21238
G1 X673.875 Y409.252 E21.52578
G1 X673.906 Y408.767 E21.56007
G1 X674.312 Y401.97 E22.04038
G1 X674.375 Y401.054 E22.10514
G1 X674.593 Y397.406 E22.36293
G1 X674.684 Y396.039 E22.45957
G1 X675.094 Y389.186 E22.94385
G1 X675.142 Y388.487 E22.99327
G1 X675.203 Y387.526 E23.06119
G1 X675.279 Y386.248 E23.1515
G1 X675.398 Y384.711 E23.26025
G1 X675.455 Y384.162 E23.29918
G1 X675.553 Y383.623 E23.33782
G1 X675.685 Y383.209 E23.36848
G1 X675.9 Y382.656 E23.41033
G1 X676.219 Y382.001 E23.46172
;MESH:Iron_Throne_Benchy.stl
G0 F3000 X686.592 Y407.811
G0 X686.722 Y409.239
G0 X689.23 Y411.185
G0 X689.245 Y411.285
;TYPE:WALL-OUTER
G1 F2700 X688.995 Y411.301 E23.47939
G1 X688.384 Y411.256 E23.52261
G1 X688.12 Y411.248 E23.54124
G1 X687.581 Y411.142 E23.57999
G1 X687.042 Y410.837 E23.62367
G1 X686.83 Y410.503 E23.65158
G1 X686.713 Y409.633 E23.7135
G1 X686.708 Y409.225 E23.74228
G1 X690.701 Y409.245 E24.02395
G1 X690.697 Y409.575 E24.04723
G1 X690.614 Y410.422 E24.10727
G1 X690.499 Y410.775 E24.13345
G1 X690.37 Y410.906 E24.14642
G1 X690.017 Y411.099 E24.1748
G1 X689.77 Y411.155 E24.19267
G1 X689.245 Y411.285 E24.23082
G0 F3000 X688.995 Y411.301
G0 X688.496 Y411.265
G0 X688.602 Y410.734
G0 X688.995 Y411.281
G0 X687.616 Y414.162
G0 X689.265 Y415.776
;TYPE:WALL-INNER
G1 F2700 X688.825 Y415.982 E24.26509
G1 X688.868 Y415.735
G1 X688.966 Y415.741
G1 X689.552 Y415.712 E24.29068
G1 X689.265 Y415.776
G0 F3000 X692.549 Y416.594
G1 F2700 X691.19 Y415.699 E24.40546
G1 X690.06 Y415.649 E24.48525
G1 X690.342 Y415.614
G1 X690.929 Y415.452
G1 X691.664 Y415.236 E24.50694
G1 X692.342 Y414.893 E24.53491
G1 X693.087 Y414.442 E24.59634
G1 X693.626 Y413.911 E24.64971
G1 X693.995 Y413.561 E24.68559
G1 X694.344 Y412.984 E24.73316
G1 X694.761 Y412.164 E24.79805
G1 X694.911 Y411.552 E24.8425
G1 X695.082 Y410.515 E24.91663
G1 X695.103 Y409.836 E24.96455
G1 X695.107 Y409.293 E25.00286
G1 X695.115 Y408.96 E25.02635
G1 X695.172 Y407.564 E25.12491
G1 X694.952 Y406.845 E25.17795
G1 X694.395 Y405.684 E25.26878
G1 X694.253 Y405.572 E25.28154
G1 X694.695 Y405.057 E25.31003
G1 X695.241 Y403.778 E25.40813
G1 X695.314 Y402.675 E25.4861
G1 X695.373 Y402.332 E25.51065
G1 X695.334 Y401.521 E25.56793
G1 X695.176 Y400.453 E25.64408
G1 X694.767 Y399.681 E25.70571
G1 X694.742 Y399.629 E25.70978
G1 X695.149 Y398.118 E25.82016
G1 X695.145 Y396.5 E25.9343
G1 X695.141 Y394.133 E26.10127
G1 X695.167 Y392.739 E26.19961
G1 X695.191 Y392.222 E26.23612
G1 X695.074 Y391.576 E26.28243
G1 X694.815 Y390.798 E26.34027
G1 X694.588 Y390.541 E26.36446
G1 X694.837 Y390.179 E26.39545
G1 X695.182 Y389.198 E26.46881
G1 X695.355 Y388.465 E26.52193
G1 X695.342 Y387.985 E26.55581
G1 X695.374 Y387.172 E26.6132
G1 X695.241 Y386.327 E26.67354
G1 X695.04 Y385.6 E26.72675
G1 X694.744 Y384.898 E26.78049
G1 X695.497 Y384.898 E26.80151
G1 X695.835 Y384.952 E26.81099
G1 X695.933 Y385.072 E26.81244
G1 X696.064 Y387.127 E26.92771
G1 X696.192 Y389.133 E27.04029
G1 X696.326 Y391.224 E27.16745
G1 X696.348 Y391.495 E27.1831
G1 X696.501 Y394.051 E27.35157
G1 X696.643 Y396.413 E27.51081
G1 X696.737 Y397.961 E27.62021
G1 X696.773 Y398.445 E27.65444
G1 X697.675 Y413.445 E28.71445
G1 X697.695 Y413.673 E28.73059
G1 X698.027 Y420.226 E29.19343
G1 X698.016 Y420.671 E29.22483
G1 X697.983 Y421.265 E29.2668
G1 X697.929 Y421.858 E29.3088
G1 X697.876 Y422.307 E29.34069
G1 X697.777 Y422.982 E29.38882
G1 X697.657 Y423.63 E29.4353
G1 X697.587 Y423.961 E29.45917
G1 X697.463 Y424.493 E29.4977
G1 X697.289 Y425.147 E29.54544
G1 X697.167 Y425.554 E29.57541
G1 X696.962 Y426.169 E29.62114
G1 X696.708 Y426.845 E29.67208
G1 X696.672 Y426.95 E29.67991
G1 X696.147 Y428.14 E29.77166
G1 X695.628 Y429.117 E29.84969
G1 X694.614 Y430.772 E29.98661
G1 X694.138 Y431.425 E30.04361
G1 X693.816 Y431.845 E30.08094
G1 X693.215 Y432.556 E30.14661
G1 X693.083 Y432.698 E30.16029
G1 X693.086 Y432.135 E30.17842
G1 X693.039 Y431.014 E30.23838
G1 X692.952 Y429.98 E30.31157
G1 X692.744 Y429.533 E30.34635
G1 X692.879 Y429.35 E30.36239
G1 X693.123 Y427.998 E30.4593
G1 X692.75 Y426.812 E30.547
G1 X692.319 Y426.368 E30.59065
G1 X692.763 Y425.572 E30.65494
G1 X693.022 Y424.798 E30.71252
G1 X693.09 Y423.613 E30.79624
G1 X692.71 Y422.875 E30.8548
G1 X692.935 Y422.441 E30.88928
G1 X693.074 Y421.748 E30.93914
G1 X693.064 Y420.94 E30.99614
G1 X692.623 Y420.039 E31.0669
G1 X693.152 Y419.117 E31.14188
G1 X692.942 Y417.626 E31.24809
G1 X692.795 Y417.38 E31.26831
G1 X692.549 Y416.594 E31.32641
G0 F3000 X692.362 Y421.683
G0 X692.055 Y423.05
G0 X690.755 Y422.837
G0 X690.026 Y422.927
G0 X684.67 Y423.013
G0 X684.024 Y422.754
G0 X682.368 Y419.84
G1 F2700 X682.052 Y420.91 E31.40511
G1 X681.427 Y420.736 E31.45087
G1 X679.832 Y421.158 E31.56725
G1 X679.389 Y421.582 E31.61051
G1 X679.329 Y421.231
G1 X679.284 Y420.178 E31.66784
G1 X679.285 Y420.023 E31.67877
G1 X679.374 Y417.664 E31.8453
G1 X679.535 Y414.985 E32.03461
G1 X679.568 Y414.556 E32.06496
G1 X679.878 Y409.37 E32.43143
G1 X679.889 Y409.221 E32.44197
G1 X680.324 Y401.951 E32.95571
G1 X680.344 Y401.733 E32.97116
G1 X680.614 Y397.208 E33.29091
G1 X680.633 Y397.078 E33.30018
G1 X680.793 Y394.39 E33.49013
G1 X681.108 Y389.13 E33.86183
G1 X681.153 Y388.538 E33.90371
G1 X681.31 Y385.878 E34.09167
G1 X681.387 Y385.069 E34.149
G1 X681.435 Y384.981 E34.15607
G1 X681.739 Y384.897 E34.17832
G1 X682.687 Y384.897 E34.24519
G1 X682.64 Y384.983
G1 X682.32 Y385.661 E34.26522
G1 X682.09 Y386.722 E34.32726
G1 X682.104 Y387.601 E34.35442
G1 X682.048 Y388.401 E34.41099
G1 X682.167 Y388.979 E34.43848
G1 X682.438 Y389.817 E34.49165
G1 X682.665 Y390.357 E34.53297
G1 X683.009 Y390.808 E34.57298
G1 X683.651 Y391.568 E34.64316
G1 X684.593 Y392.125 E34.72035
G1 X683.861 Y392.247 E34.72615
G1 X682.716 Y393.172 E34.82998
G1 X682.216 Y394.475 E34.92842
G1 X682.293 Y395.51 E35.00164
G1 X682.442 Y396.138 E35.04716
G1 X682.92 Y397.025 E35.11824
G1 X683.643 Y397.51 E35.17965
G1 X684.434 Y397.875 E35.2411
G1 X684.612 Y397.897 E35.25375
G1 X683.771 Y398.223 E35.27528
G1 X682.952 Y399.01 E35.3554
G1 X682.528 Y399.707 E35.41295
G1 X682.309 Y400.284 E35.45648
G1 X682.073 Y401.167 E35.52095
G1 X682.058 Y401.877 E35.57105
G1 X682.033 Y402.177 E35.59228
G1 X682.106 Y403.342 E35.67462
G1 X682.309 Y403.972 E35.72131
G1 X682.732 Y404.894 E35.79287
G1 X683.106 Y405.474 E35.84155
G1 X683.196 Y405.567 E35.85068
G1 X682.905 Y405.84 E35.87882
G1 X682.267 Y406.665 E35.95239
G1 X682.255 Y407.971 E36.04452
G1 X682.273 Y408.858 E36.1071
G1 X682.28 Y409.611 E36.16022
G1 X682.329 Y410.52 E36.22443
G1 X682.428 Y411.139 E36.26865
G1 X682.628 Y412.035 E36.33341
G1 X682.833 Y412.44 E36.36543
G1 X682.257 Y413.049 E36.42456
G1 X681.887 Y413.754 E36.48072
G1 X681.811 Y414.08 E36.50434
G1 X681.562 Y414.866 E36.5625
G1 X681.603 Y415.645 E36.61752
G1 X681.751 Y416.132 E36.65343
G1 X681.977 Y416.849 E36.70646
G1 X682.25 Y417.252 E36.74079
G1 X682.047 Y417.857 E36.78581
G1 X681.929 Y418.992 E36.8663
G1 X682.408 Y419.809 E36.93311
