;FLAVOR:Marlin
;TIME:560
;Filament used: 1.28221m
;Layer height: 1.6
;MINX:800.892
;MINY:234.807
;MINZ:0.3
;MAXX:820.492
;MAXY:314.407
;MAXZ:5.1
;TARGET_MACHINE.NAME:Unknown
;Generated with Cura_SteamEngine 5.6.0
M140 S60
M105
M190 S60
M104 S200
M105
M109 S200
M82 ;absolute extrusion mode
G28 ;Home
G1 Z15.0 F6000 ;Move the platform down 15mm
;Prime the extruder
G92 E0
G1 F200 E3
G92 E0
G92 E0
G92 E0
G1 F1500 E-6.5
;LAYER_COUNT:4
;LAYER:0
M107
;MESH:prueba_corte.STL
G0 F3600 X820.092 Y314.007 Z0.3
;TYPE:WALL-INNER
G1 F1500 E0
G1 F1800 X820.092 Y235.207 E1.48227
G1 X801.292 Y235.207 E1.83591
G1 X801.292 Y314.007 E3.31818
G1 X820.092 Y314.007 E3.67182
G0 F3600 X820.492 Y314.407
;TYPE:WALL-OUTER
G1 F1800 X820.492 Y234.807 E5.16914
G1 X800.892 Y234.807 E5.53783
G1 X800.892 Y314.407 E7.03515
G1 X820.492 Y314.407 E7.40384
G0 F3600 X820.492 Y314.207
G0 X819.712 Y313.627
;TYPE:SKIN
G1 F1800 X801.672 Y313.627 E7.74318
G1 X801.672 Y235.587 E9.21115
G1 X819.712 Y235.587 E9.5505
G1 X819.712 Y313.627 E11.01847
G0 F3600 X802.178 Y313.426
G1 F1800 X801.871 Y313.118 E11.02665
G0 F3600 X801.871 Y312.553
G1 F1800 X802.744 Y313.426 E11.04988
G0 F3600 X803.31 Y313.426
G1 F1800 X801.871 Y311.987 E11.08816
G0 F3600 X801.871 Y311.421
G1 F1800 X803.875 Y313.426 E11.14148
G0 F3600 X804.441 Y313.426
G1 F1800 X801.871 Y310.856 E11.20985
G0 F3600 X801.871 Y310.29
G1 F1800 X805.007 Y313.426 E11.29327
G0 F3600 X805.572 Y313.426
G1 F1800 X801.871 Y309.724 E11.39174
G0 F3600 X801.871 Y309.159
G1 F1800 X806.138 Y313.426 E11.50525
G0 F3600 X806.704 Y313.426
G1 F1800 X801.871 Y308.593 E11.63382
G0 F3600 X801.871 Y308.027
G1 F1800 X807.269 Y313.426 E11.77743
G0 F3600 X807.835 Y313.426
G1 F1800 X801.871 Y307.462 E11.93609
G0 F3600 X801.871 Y306.896
G1 F1800 X808.401 Y313.426 E12.1098
G0 F3600 X808.966 Y313.426
G1 F1800 X801.871 Y306.33 E12.29855
G0 F3600 X801.871 Y305.764
G1 F1800 X809.532 Y313.426 E12.50237
G0 F3600 X810.098 Y313.426
G1 F1800 X801.871 Y305.199 E12.72122
G0 F3600 X801.871 Y304.633
G1 F1800 X810.663 Y313.426 E12.95512
G0 F3600 X811.229 Y313.426
G1 F1800 X801.871 Y304.067 E13.20408
G0 F3600 X801.871 Y303.502
G1 F1800 X811.795 Y313.426 E13.46808
G0 F3600 X812.361 Y313.426
G1 F1800 X801.871 Y302.936 E13.74713
G0 F3600 X801.871 Y302.37
G1 F1800 X812.926 Y313.426 E14.04123
G0 F3600 X813.492 Y313.426
G1 F1800 X801.871 Y301.805 E14.35038
G0 F3600 X801.871 Y301.239
G1 F1800 X814.058 Y313.426 E14.67458
G0 F3600 X814.623 Y313.426
G1 F1800 X801.871 Y300.673 E15.01382
G0 F3600 X801.871 Y300.108
G1 F1800 X815.189 Y313.426 E15.36811
G0 F3600 X815.755 Y313.426
G1 F1800 X801.871 Y299.542 E15.73745
G0 F3600 X801.871 Y298.976
G1 F1800 X816.32 Y313.426 E16.12184
G0 F3600 X816.886 Y313.426
G1 F1800 X801.871 Y298.411 E16.52127
G0 F3600 X801.871 Y297.845
G1 F1800 X817.452 Y313.426 E16.93576
G0 F3600 X818.017 Y313.426
G1 F1800 X801.871 Y297.279 E17.36529
G0 F3600 X801.871 Y296.714
G1 F1800 X818.583 Y313.426 E17.80987
G0 F3600 X819.149 Y313.426
G1 F1800 X801.871 Y296.148 E18.2695
G0 F3600 X801.871 Y295.582
G1 F1800 X819.511 Y313.222 E18.73876
G0 F3600 X819.511 Y312.657
G1 F1800 X801.871 Y295.016 E19.20803
G0 F3600 X801.871 Y294.451
G1 F1800 X819.511 Y312.091 E19.6773
G0 F3600 X819.511 Y311.525
G1 F1800 X801.871 Y293.885 E20.14656
G0 F3600 X801.871 Y293.319
G1 F1800 X819.511 Y310.96 E20.61583
G0 F3600 X819.511 Y310.394
G1 F1800 X801.871 Y292.754 E21.0851
G0 F3600 X801.871 Y292.188
G1 F1800 X819.511 Y309.828 E21.55436
G0 F3600 X819.511 Y309.263
G1 F1800 X801.871 Y291.622 E22.02363
G0 F3600 X801.871 Y291.057
G1 F1800 X819.511 Y308.697 E22.49289
G0 F3600 X819.511 Y308.131
G1 F1800 X801.871 Y290.491 E22.96216
G0 F3600 X801.871 Y289.925
G1 F1800 X819.511 Y307.565 E23.43142
G0 F3600 X819.511 Y307
G1 F1800 X801.871 Y289.36 E23.90068
G0 F3600 X801.871 Y288.794
G1 F1800 X819.511 Y306.434 E24.36994
G0 F3600 X819.511 Y305.868
G1 F1800 X801.871 Y288.228 E24.8392
G0 F3600 X801.871 Y287.663
G1 F1800 X819.511 Y305.303 E25.30847
G0 F3600 X819.511 Y304.737
G1 F1800 X801.871 Y287.097 E25.77773
G0 F3600 X801.871 Y286.531
G1 F1800 X819.511 Y304.171 E26.24699
G0 F3600 X819.511 Y303.606
G1 F1800 X801.871 Y285.966 E26.71625
G0 F3600 X801.871 Y285.4
G1 F1800 X819.511 Y303.04 E27.18551
G0 F3600 X819.511 Y302.474
G1 F1800 X801.871 Y284.834 E27.65477
G0 F3600 X801.871 Y284.268
G1 F1800 X819.511 Y301.909 E28.12405
G0 F3600 X819.511 Y301.343
G1 F1800 X801.871 Y283.703 E28.59331
G0 F3600 X801.871 Y283.137
G1 F1800 X819.511 Y300.777 E29.06257
G0 F3600 X819.511 Y300.212
G1 F1800 X801.871 Y282.571 E29.53185
G0 F3600 X801.871 Y282.006
G1 F1800 X819.511 Y299.646 E30.00111
G0 F3600 X819.511 Y299.08
G1 F1800 X801.871 Y281.44 E30.47037
G0 F3600 X801.871 Y280.874
G1 F1800 X819.511 Y298.515 E30.93965
G0 F3600 X819.511 Y297.949
G1 F1800 X801.871 Y280.309 E31.40891
G0 F3600 X801.871 Y279.743
G1 F1800 X819.511 Y297.383 E31.87817
G0 F3600 X819.511 Y296.817
G1 F1800 X801.871 Y279.177 E32.34743
G0 F3600 X801.871 Y278.612
G1 F1800 X819.511 Y296.252 E32.81669
G0 F3600 X819.511 Y295.686
G1 F1800 X801.871 Y278.046 E33.28596
G0 F3600 X801.871 Y277.48
G1 F1800 X819.511 Y295.12 E33.75522
G0 F3600 X819.511 Y294.555
G1 F1800 X801.871 Y276.915 E34.22448
G0 F3600 X801.871 Y276.349
G1 F1800 X819.511 Y293.989 E34.69374
G0 F3600 X819.511 Y293.423
G1 F1800 X801.871 Y275.783 E35.163
G0 F3600 X801.871 Y275.217
G1 F1800 X819.511 Y292.858 E35.63228
G0 F3600 X819.511 Y292.292
G1 F1800 X801.871 Y274.652 E36.10154
G0 F3600 X801.871 Y274.086
G1 F1800 X819.511 Y291.726 E36.5708
G0 F3600 X819.511 Y291.161
G1 F1800 X801.871 Y273.52 E37.04008
G0 F3600 X801.871 Y272.955
G1 F1800 X819.511 Y290.595 E37.50934
G0 F3600 X819.511 Y290.029
G1 F1800 X801.871 Y272.389 E37.9786
G0 F3600 X801.871 Y271.823
G1 F1800 X819.511 Y289.464 E38.44788
G0 F3600 X819.511 Y288.898
G1 F1800 X801.871 Y271.258 E38.91714
G0 F3600 X801.871 Y270.692
G1 F1800 X819.511 Y288.332 E39.3864
G0 F3600 X819.511 Y287.767
G1 F1800 X801.871 Y270.126 E39.85567
G0 F3600 X801.871 Y269.561
G1 F1800 X819.511 Y287.201 E40.32494
G0 F3600 X819.511 Y286.635
G1 F1800 X801.871 Y268.995 E40.7942
G0 F3600 X801.871 Y268.429
G1 F1800 X819.511 Y286.069 E41.26346
G0 F3600 X819.511 Y285.504
G1 F1800 X801.871 Y267.864 E41.73272
G0 F3600 X801.871 Y267.298
G1 F1800 X819.511 Y284.938 E42.20198
G0 F3600 X819.511 Y284.372
G1 F1800 X801.871 Y266.732 E42.67125
G0 F3600 X801.871 Y266.167
G1 F1800 X819.511 Y283.807 E43.14051
G0 F3600 X819.511 Y283.241
G1 F1800 X801.871 Y265.601 E43.60977
G0 F3600 X801.871 Y265.035
G1 F1800 X819.511 Y282.675 E44.07903
G0 F3600 X819.511 Y282.11
G1 F1800 X801.871 Y264.469 E44.54831
G0 F3600 X801.871 Y263.904
G1 F1800 X819.511 Y281.544 E45.01757
G0 F3600 X819.511 Y280.978
G1 F1800 X801.871 Y263.338 E45.48683
G0 F3600 X801.871 Y262.772
G1 F1800 X819.511 Y280.413 E45.95611
G0 F3600 X819.511 Y279.847
G1 F1800 X801.871 Y262.207 E46.42537
G0 F3600 X801.871 Y261.641
G1 F1800 X819.511 Y279.281 E46.89463
G0 F3600 X819.511 Y278.716
G1 F1800 X801.871 Y261.075 E47.3639
G0 F3600 X801.871 Y260.51
G1 F1800 X819.511 Y278.15 E47.83317
G0 F3600 X819.511 Y277.584
G1 F1800 X801.871 Y259.944 E48.30243
G0 F3600 X801.871 Y259.378
G1 F1800 X819.511 Y277.018 E48.77169
G0 F3600 X819.511 Y276.453
G1 F1800 X801.871 Y258.813 E49.24095
G0 F3600 X801.871 Y258.247
G1 F1800 X819.511 Y275.887 E49.71021
G0 F3600 X819.511 Y275.321
G1 F1800 X801.871 Y257.681 E50.17947
G0 F3600 X801.871 Y257.116
G1 F1800 X819.511 Y274.756 E50.64874
G0 F3600 X819.511 Y274.19
G1 F1800 X801.871 Y256.55 E51.118
G0 F3600 X801.871 Y255.984
G1 F1800 X819.511 Y273.624 E51.58726
G0 F3600 X819.511 Y273.059
G1 F1800 X801.871 Y255.418 E52.05654
G0 F3600 X801.871 Y254.853
G1 F1800 X819.511 Y272.493 E52.5258
G0 F3600 X819.511 Y271.927
G1 F1800 X801.871 Y254.287 E52.99506
G0 F3600 X801.871 Y253.721
G1 F1800 X819.511 Y271.362 E53.46433
G0 F3600 X819.511 Y270.796
G1 F1800 X801.871 Y253.156 E53.9336
G0 F3600 X801.871 Y252.59
G1 F1800 X819.511 Y270.23 E54.40286
G0 F3600 X819.511 Y269.665
G1 F1800 X801.871 Y252.024 E54.87213
G0 F3600 X801.871 Y251.459
G1 F1800 X819.511 Y269.099 E55.34139
G0 F3600 X819.511 Y268.533
G1 F1800 X801.871 Y250.893 E55.81066
G0 F3600 X801.871 Y250.327
G1 F1800 X819.511 Y267.968 E56.27993
G0 F3600 X819.511 Y267.402
G1 F1800 X801.871 Y249.762 E56.74919
G0 F3600 X801.871 Y249.196
G1 F1800 X819.511 Y266.836 E57.21846
G0 F3600 X819.511 Y266.27
G1 F1800 X801.871 Y248.63 E57.68772
G0 F3600 X801.871 Y248.065
G1 F1800 X819.511 Y265.705 E58.15698
G0 F3600 X819.511 Y265.139
G1 F1800 X801.871 Y247.499 E58.62624
G0 F3600 X801.871 Y246.933
G1 F1800 X819.511 Y264.573 E59.0955
G0 F3600 X819.511 Y264.008
G1 F1800 X801.871 Y246.368 E59.56476
G0 F3600 X801.871 Y245.802
G1 F1800 X819.511 Y263.442 E60.03403
G0 F3600 X819.511 Y262.876
G1 F1800 X801.871 Y245.236 E60.50329
G0 F3600 X801.871 Y244.67
G1 F1800 X819.511 Y262.311 E60.97256
G0 F3600 X819.511 Y261.745
G1 F1800 X801.871 Y244.105 E61.44182
G0 F3600 X801.871 Y243.539
G1 F1800 X819.511 Y261.179 E61.91109
G0 F3600 X819.511 Y260.614
G1 F1800 X801.871 Y242.973 E62.38036
G0 F3600 X801.871 Y242.408
G1 F1800 X819.511 Y260.048 E62.84962
G0 F3600 X819.511 Y259.482
G1 F1800 X801.871 Y241.842 E63.31889
G0 F3600 X801.871 Y241.276
G1 F1800 X819.511 Y258.917 E63.78816
G0 F3600 X819.511 Y258.351
G1 F1800 X801.871 Y240.711 E64.25742
G0 F3600 X801.871 Y240.145
G1 F1800 X819.511 Y257.785 E64.72668
G0 F3600 X819.511 Y257.219
G1 F1800 X801.871 Y239.579 E65.19595
G0 F3600 X801.871 Y239.014
G1 F1800 X819.511 Y256.654 E65.66521
G0 F3600 X819.511 Y256.088
G1 F1800 X801.871 Y238.448 E66.13447
G0 F3600 X801.871 Y237.882
G1 F1800 X819.511 Y255.522 E66.60373
G0 F3600 X819.511 Y254.957
G1 F1800 X801.871 Y237.317 E67.07299
G0 F3600 X801.871 Y236.751
G1 F1800 X819.511 Y254.391 E67.54226
G0 F3600 X819.511 Y253.825
G1 F1800 X801.871 Y236.185 E68.01152
G0 F3600 X802.038 Y235.787
G1 F1800 X819.511 Y253.26 E68.47634
G0 F3600 X819.511 Y252.694
G1 F1800 X802.604 Y235.787 E68.9261
G0 F3600 X803.17 Y235.787
G1 F1800 X819.511 Y252.128 E69.3608
G0 F3600 X819.511 Y251.563
G1 F1800 X803.735 Y235.787 E69.78048
G0 F3600 X804.301 Y235.787
G1 F1800 X819.511 Y250.997 E70.1851
G0 F3600 X819.511 Y250.431
G1 F1800 X804.867 Y235.787 E70.57466
G0 F3600 X805.432 Y235.787
G1 F1800 X819.511 Y249.866 E70.94919
G0 F3600 X819.511 Y249.3
G1 F1800 X805.998 Y235.787 E71.30867
G0 F3600 X806.564 Y235.787
G1 F1800 X819.511 Y248.734 E71.65308
G0 F3600 X819.511 Y248.169
G1 F1800 X807.129 Y235.787 E71.98247
G0 F3600 X807.695 Y235.787
G1 F1800 X819.511 Y247.603 E72.2968
G0 F3600 X819.511 Y247.037
G1 F1800 X808.261 Y235.787 E72.59608
G0 F3600 X808.826 Y235.787
G1 F1800 X819.511 Y246.471 E72.88031
G0 F3600 X819.511 Y245.906
G1 F1800 X809.392 Y235.787 E73.1495
G0 F3600 X809.958 Y235.787
G1 F1800 X819.511 Y245.34 E73.40363
G0 F3600 X819.511 Y244.774
G1 F1800 X810.523 Y235.787 E73.64271
G0 F3600 X811.089 Y235.787
G1 F1800 X819.511 Y244.209 E73.86676
G0 F3600 X819.511 Y243.643
G1 F1800 X811.655 Y235.787 E74.07574
G0 F3600 X812.221 Y235.787
G1 F1800 X819.511 Y243.077 E74.26967
G0 F3600 X819.511 Y242.512
G1 F1800 X812.786 Y235.787 E74.44857
G0 F3600 X813.352 Y235.787
G1 F1800 X819.511 Y241.946 E74.61241
G0 F3600 X819.511 Y241.38
G1 F1800 X813.918 Y235.787 E74.7612
G0 F3600 X814.483 Y235.787
G1 F1800 X819.511 Y240.815 E74.89495
G0 F3600 X819.511 Y240.249
G1 F1800 X815.049 Y235.787 E75.01365
G0 F3600 X815.615 Y235.787
G1 F1800 X819.511 Y239.683 E75.1173
G0 F3600 X819.511 Y239.118
G1 F1800 X816.18 Y235.787 E75.20591
G0 F3600 X816.746 Y235.787
G1 F1800 X819.511 Y238.552 E75.27946
G0 F3600 X819.511 Y237.986
G1 F1800 X817.312 Y235.787 E75.33796
G0 F3600 X817.877 Y235.787
G1 F1800 X819.511 Y237.421 E75.38143
G0 F3600 X819.511 Y236.855
G1 F1800 X818.443 Y235.787 E75.40984
G0 F3600 X819.009 Y235.787
G1 F1800 X819.511 Y236.289 E75.42319
G0 F3600 X819.492 Y236.289
;MESH:NONMESH
G0 F600 X819.492 Y236.289 Z1.9
G0 F3600 X819.822 Y313.737
G0 X820.092 Y314.007
;TIME_ELAPSED:154.825198
;LAYER:1
M106 S255
;TYPE:WALL-INNER
;MESH:prueba_corte.STL
G1 F2700 X820.092 Y235.207 E83.32864
G1 X801.292 Y235.207 E85.21472
G1 X801.292 Y314.007 E93.12017
G1 X820.092 Y314.007 E95.00624
G0 F5400 X820.492 Y314.407
;TYPE:WALL-OUTER
G1 F1800 X820.492 Y234.807 E102.99195
G1 X800.892 Y234.807 E104.95828
G1 X800.892 Y314.407 E112.94398
G1 X820.492 Y314.407 E114.91031
G0 F5400 X820.492 Y314.207
G0 X819.712 Y313.627
;TYPE:SKIN
G1 F1800 X801.672 Y313.627 E116.72014
G1 X801.672 Y235.587 E124.54934
G1 X819.712 Y235.587 E126.35917
G1 X819.712 Y313.627 E134.18838
G0 F5400 X819.075 Y313.427
G1 F1800 X819.511 Y312.99 E134.25031
G0 F5400 X819.511 Y312.425
G1 F1800 X818.509 Y313.427 E134.39247
G0 F5400 X817.943 Y313.427
G1 F1800 X819.511 Y311.859 E134.61493
G0 F5400 X819.511 Y311.293
G1 F1800 X817.377 Y313.427 E134.9177
G0 F5400 X816.812 Y313.427
G1 F1800 X819.511 Y310.728 E135.30063
G0 F5400 X819.511 Y310.162
G1 F1800 X816.246 Y313.427 E135.76386
G0 F5400 X815.68 Y313.427
G1 F1800 X819.511 Y309.596 E136.3074
G0 F5400 X819.511 Y309.031
G1 F1800 X815.115 Y313.427 E136.93109
G0 F5400 X814.549 Y313.427
G1 F1800 X819.511 Y308.465 E137.63509
G0 F5400 X819.511 Y307.899
G1 F1800 X813.983 Y313.427 E138.41939
G0 F5400 X813.418 Y313.427
G1 F1800 X819.511 Y307.334 E139.28386
G0 F5400 X819.511 Y306.768
G1 F1800 X812.852 Y313.427 E140.22862
G0 F5400 X812.286 Y313.427
G1 F1800 X819.511 Y306.202 E141.25369
G0 F5400 X819.511 Y305.637
G1 F1800 X811.721 Y313.427 E142.35892
G0 F5400 X811.155 Y313.427
G1 F1800 X819.511 Y305.071 E143.54446
G0 F5400 X819.511 Y304.505
G1 F1800 X810.589 Y313.427 E144.81029
G0 F5400 X810.024 Y313.427
G1 F1800 X819.511 Y303.939 E146.15636
G0 F5400 X819.511 Y303.374
G1 F1800 X809.458 Y313.427 E147.58266
G0 F5400 X808.892 Y313.427
G1 F1800 X819.511 Y302.808 E149.08927
G0 F5400 X819.511 Y302.242
G1 F1800 X808.326 Y313.427 E150.67617
G0 F5400 X807.761 Y313.427
G1 F1800 X819.511 Y301.677 E152.34324
G0 F5400 X819.511 Y301.111
G1 F1800 X807.195 Y313.427 E154.09061
G0 F5400 X806.629 Y313.427
G1 F1800 X819.511 Y300.545 E155.91828
G0 F5400 X819.511 Y299.98
G1 F1800 X806.064 Y313.427 E157.82612
G0 F5400 X805.498 Y313.427
G1 F1800 X819.511 Y299.414 E159.81426
G0 F5400 X819.511 Y298.848
G1 F1800 X804.932 Y313.427 E161.8827
G0 F5400 X804.367 Y313.427
G1 F1800 X819.511 Y298.283 E164.0313
G0 F5400 X819.511 Y297.717
G1 F1800 X803.801 Y313.427 E166.2602
G0 F5400 X803.235 Y313.427
G1 F1800 X819.511 Y297.151 E168.56941
G0 F5400 X819.511 Y296.586
G1 F1800 X802.67 Y313.427 E170.95878
G0 F5400 X802.104 Y313.427
G1 F1800 X819.511 Y296.02 E173.42845
G0 F5400 X819.511 Y295.454
G1 F1800 X801.871 Y313.094 E175.93118
G0 F5400 X801.871 Y312.529
G1 F1800 X819.511 Y294.888 E178.43398
G0 F5400 X819.511 Y294.323
G1 F1800 X801.871 Y311.963 E180.93671
G0 F5400 X801.871 Y311.397
G1 F1800 X819.511 Y293.757 E183.43944
G0 F5400 X819.511 Y293.191
G1 F1800 X801.871 Y310.832 E185.94224
G0 F5400 X801.871 Y310.266
G1 F1800 X819.511 Y292.626 E188.44497
G0 F5400 X819.511 Y292.06
G1 F1800 X801.871 Y309.7 E190.9477
G0 F5400 X801.871 Y309.135
G1 F1800 X819.511 Y291.494 E193.4505
G0 F5400 X819.511 Y290.929
G1 F1800 X801.871 Y308.569 E195.95323
G0 F5400 X801.871 Y308.003
G1 F1800 X819.511 Y290.363 E198.45596
G0 F5400 X819.511 Y289.797
G1 F1800 X801.871 Y307.438 E200.95876
G0 F5400 X801.871 Y306.872
G1 F1800 X819.511 Y289.232 E203.46149
G0 F5400 X819.511 Y288.666
G1 F1800 X801.871 Y306.306 E205.96422
G0 F5400 X801.871 Y305.74
G1 F1800 X819.511 Y288.1 E208.46695
G0 F5400 X819.511 Y287.535
G1 F1800 X801.871 Y305.175 E210.96968
G0 F5400 X801.871 Y304.609
G1 F1800 X819.511 Y286.969 E213.47241
G0 F5400 X819.511 Y286.403
G1 F1800 X801.871 Y304.043 E215.97514
G0 F5400 X801.871 Y303.478
G1 F1800 X819.511 Y285.838 E218.47787
G0 F5400 X819.511 Y285.272
G1 F1800 X801.871 Y302.912 E220.9806
G0 F5400 X801.871 Y302.346
G1 F1800 X819.511 Y284.706 E223.48333
G0 F5400 X819.511 Y284.14
G1 F1800 X801.871 Y301.781 E225.98613
G0 F5400 X801.871 Y301.215
G1 F1800 X819.511 Y283.575 E228.48886
G0 F5400 X819.511 Y283.009
G1 F1800 X801.871 Y300.649 E230.99159
G0 F5400 X801.871 Y300.084
G1 F1800 X819.511 Y282.443 E233.49439
G0 F5400 X819.511 Y281.878
